X: 42
M:2/4
L:1/16
K:Bb
uF2 |\
.B2.d2 decd | B2F2F2 (FE) | DFBF EDEG | FGFE .D2.B,2 |
|: f2 |\
fbfd BdBF | EDEF GFED | .C2(gf) edcB | ABcA F2 ((3fga) |
bfdf gece | dfBd cA.F2 | fgfe dcBA | B2B2B2 :|


